X:362
T: New Park
N: O'Farrell's Pocket Companion v.4 (Sky ed. p.156)
N: "Irish"
M: 6/8
L: 1/8
Q: 300
R: jig
K: G
B/A/|: GDG G2c| BGB cAF| GDG G2B| dBd gab|
GDG G2c| BGB BAG| def g2e| edc BAG :|
P:2
g2e g/a/ge| g/a/ge dcB| g2e g/a/ge| aga bge|
g2e g/a/ge| g/a/ge dcB| def g2e| edc BAG :|
P:3
GBG GdG| GBG cAF| GBG GdG| AGA B3|
GBG GdG| GBG BAG| def g2e| edc BAG :|
